svg/material-icons/cabin/materialiconsround/20px.svg

<svg xmlns="http://www.w3.org/2000/svg" width="20" height="20" viewBox="0 0 20 20"><path d="M4.25 3.45c.31-.64.94-1.2 2-1.2.24-.01.52-.08.66-.34a.76.76 0 0 1 .67-.41c.54 0 .91.57.68 1.05-.31.64-.94 1.2-2 1.2-.25.01-.53.08-.67.34a.76.76 0 0 1-.67.41c-.54 0-.91-.57-.67-1.05zm13.54 6.95c-.25.33-.72.39-1.05.14L16 9.97V16c0 .55-.45 1-1 1H5c-.55 0-1-.45-1-1V9.97l-.74.57a.749.749 0 1 1-.91-1.19L4 8.08V6.25c0-.41.34-.75.75-.75s.75.34.75.75v.69l3.89-2.97c.36-.27.86-.27 1.21 0l7.05 5.38c.33.25.4.72.14 1.05zM8.54 6.5h2.91L10 5.39 8.54 6.5zM14.5 14h-9v1.5h9V14zm0-3h-9v1.5h9V11zm0-2.18L13.42 8H6.58l-1.08.82v.68h9v-.68z"/></svg>

<svg xmlns="http://www.w3.org/2000/svg" enable-background="new 0 0 20 20" height="20" viewBox="0 0 20 20" width="20"><rect fill="none" height="20" width="20"/><path d="M4.25,3.45c0.31-0.64,0.94-1.2,2-1.2c0.24-0.01,0.52-0.08,0.66-0.34C7.04,1.66,7.3,1.5,7.58,1.5c0.54,0,0.91,0.57,0.68,1.05 c-0.31,0.64-0.94,1.2-2,1.2C6.01,3.76,5.73,3.83,5.59,4.09C5.46,4.34,5.2,4.5,4.92,4.5C4.38,4.5,4.01,3.93,4.25,3.45z M17.79,10.4 c-0.25,0.33-0.72,0.39-1.05,0.14L16,9.97V16c0,0.55-0.45,1-1,1H5c-0.55,0-1-0.45-1-1V9.97l-0.74,0.57c-0.33,0.25-0.8,0.19-1.05-0.14 c-0.25-0.33-0.19-0.8,0.14-1.05L4,8.08V6.25C4,5.84,4.34,5.5,4.75,5.5S5.5,5.84,5.5,6.25v0.69l3.89-2.97c0.36-0.27,0.86-0.27,1.21,0 l7.05,5.38C17.98,9.6,18.05,10.07,17.79,10.4z M8.54,6.5h2.91L10,5.39L8.54,6.5z M14.5,14h-9v1.5h9V14z M14.5,11h-9v1.5h9V11z M14.5,8.82L13.42,8H6.58L5.5,8.82V9.5h9V8.82z"/></svg>
